src/dsmComponents/Icons/car-driving-20px.svg

<?xml version="1.0" encoding="UTF-8"?>
<svg width="20px" height="16px" viewBox="0 0 20 16" version="1.1" xmlns="http://www.w3.org/2000/svg" xmlns:xlink="http://www.w3.org/1999/xlink">
    <!-- Generator: Sketch 59.1 (86144) - https://sketch.com -->
    <title>car-driving-20px</title>
    <desc>Created with Sketch.</desc>
    <defs>
        <path d="M15.575,10.779 C14.875,10.779 14.307,10.212 14.307,9.512 C14.307,8.812 14.875,8.245 15.575,8.245 C16.274,8.245 16.842,8.812 16.842,9.512 C16.842,10.212 16.274,10.779 15.575,10.779 M4.429,10.779 C3.728,10.779 3.161,10.212 3.161,9.512 C3.161,8.812 3.728,8.245 4.429,8.245 C5.128,8.245 5.695,8.812 5.695,9.512 C5.695,10.212 5.128,10.779 4.429,10.779 M3.279,5.464 L4.77,1.759 C4.937,1.345 5.434,1.005 5.874,1.005 L14.129,1.005 C14.568,1.005 15.065,1.345 15.232,1.759 L16.723,5.464 C16.89,5.879 16.668,6.218 16.227,6.218 L3.775,6.218 C3.335,6.218 3.112,5.879 3.279,5.464 M18.9249,13.3257 L18.9249,14.1457 C18.9249,14.7257 18.4759,15.1977 17.9259,15.1977 L17.9259,15.1977 L16.6189,15.1977 C16.0679,15.1977 15.6189,14.7257 15.6189,14.1457 L15.6189,14.1457 L15.6189,13.3257 L18.9249,13.3257 Z M4.384,13.3257 L4.384,14.1457 C4.384,14.7257 3.934,15.1977 3.384,15.1977 L3.384,15.1977 L2.077,15.1977 C1.526,15.1977 1.077,14.7257 1.077,14.1457 L1.077,14.1457 L1.077,13.3257 L4.384,13.3257 Z M14.615,0 C15.35,0 16.177,0.582 16.456,1.298 L16.456,1.298 L17.442,3.825 L17.949,5.123 L19.151,5.123 C19.62,5.123 20,5.523 20,6.016 C20,6.509 19.62,6.909 19.151,6.909 L19.151,6.909 L18.611,6.909 C18.793,7.555 18.925,8.364 18.925,8.928 L18.925,8.928 L18.925,12.696 L15.619,12.696 L15.619,12.695 L4.384,12.695 L4.384,12.696 L1.077,12.696 L1.077,8.928 C1.077,8.363 1.209,7.555 1.39,6.909 L1.39,6.909 L0.849,6.909 C0.38,6.909 0,6.509 0,6.016 C0,5.523 0.38,5.123 0.849,5.123 L0.849,5.123 L2.054,5.123 L2.562,3.821 L3.547,1.298 C3.826,0.582 4.651,0 5.387,0 L5.387,0 Z" id="path-1"></path>
    </defs>
    <g id="Final" stroke="none" stroke-width="1" fill="none" fill-rule="evenodd">
        <g id="All-Nucleo-Icons" transform="translate(-463.000000, -1049.000000)">
            <g id="Solo/Nucleo/20px/car-driving" transform="translate(461.000000, 1045.000000)">
                <g transform="translate(2.000000, 4.000000)" id="driving">
                    <g>
                        <g id="Colour/Default-Colour">
                            <g>
                                <mask id="mask-2" fill="white">
                                    <use xlink:href="#path-1"></use>
                                </mask>
                                <use id="Mask" fill="#000000" xlink:href="#path-1"></use>
                                <g id="colour/neutral/chia" mask="url(#mask-2)" fill="#737373">
                                    <g transform="translate(-22.000000, -24.000000)" id="Colour">
                                        <rect x="0" y="0" width="64" height="64"></rect>
                                    </g>
                                </g>
                            </g>
                        </g>
                    </g>
                </g>
            </g>
        </g>
    </g>
</svg>

<svg width="20" height="16" xmlns="http://www.w3.org/2000/svg" xmlns:xlink="http://www.w3.org/1999/xlink"><defs><path d="M15.575 10.779a1.268 1.268 0 110-2.535 1.268 1.268 0 010 2.535m-11.146 0a1.267 1.267 0 11-.002-2.534 1.267 1.267 0 01.002 2.534m-1.15-5.315L4.77 1.759c.167-.414.664-.754 1.104-.754h8.255c.439 0 .936.34 1.103.754l1.491 3.705c.167.415-.055.754-.496.754H3.775c-.44 0-.663-.339-.496-.754m15.646 7.862v.82c0 .58-.45 1.052-1 1.052H16.62c-.551 0-1-.472-1-1.052v-.82h3.306zm-14.541 0v.82c0 .58-.45 1.052-1 1.052H2.077c-.551 0-1-.472-1-1.052v-.82h3.307zM14.615 0c.735 0 1.562.582 1.841 1.298l.986 2.527.507 1.298h1.202c.469 0 .849.4.849.893s-.38.893-.849.893h-.54c.182.646.314 1.455.314 2.019v3.768h-3.306v-.001H4.384v.001H1.077V8.928c0-.565.132-1.373.313-2.019H.849c-.469 0-.849-.4-.849-.893s.38-.893.849-.893h1.205l.508-1.302.985-2.523C3.826.582 4.651 0 5.387 0z" id="car-driving-20px_svg__a"/></defs><use fill="#737373" xlink:href="#car-driving-20px_svg__a" fill-rule="evenodd"/></svg>
